X: 3
T: Miss Lyall
Z: Tate
S: https://thesession.org/tunes/173#setting22352
R: strathspey
M: 4/4
L: 1/8
K: Ador
S (3AcB|"Am"A<A,A,>B, "C"C>D[EG,]>[FG,]|"G"[G2G,2] {Bc}B>A [G2G,2] (3[GG,]cB|"Am"A<A,A,>B, "C"C>DE>A|"Am"c>A"E"B<^G "Am"{G}A2 (3AcB|
"Am"A<A,A,>B, "C"C>D[EG,]>[FG,]|"G"[G2G,2] {Bc}B>A [G2G,2] (3Bcd|"Am"e>c"G"{c}d>B "Am"c>A"Em"B>G|"Am"E<A"E"^G<B "Am"{E}A2 A<B|
"Am"A<aa>f "G"g>a b/a/g/f/|"Am"e<aa>f "G"((3[gB][aB][gB]) "D"f>g|"Am"e<aa>f "G"g>a b/a/g/f/|"Am"e>c"G"d<B "Am"{E}A2 A<B|
"Am"A<aa>f "G"g>a b/a/g/f/|"Am"e<aa>f "G"((3[gB][aB][gB]) "D"f>g|"Am"(3agf "Em"(3gab "C"(3edc "G"(3Bcd|"Am"e>c"G"d<B "Am"{E}A2||

